src/assets/edit.svg

<svg clip-rule="evenodd" fill-rule="evenodd" height="512" stroke-linejoin="round" stroke-miterlimit="2" viewBox="0 0 24 24" width="512" xmlns="http://www.w3.org/2000/svg"><g id="Icon"><path d="m13.647 3.25c.414 0 .75.336.75.75s-.336.75-.75.75h-8.647c-1.243 0-2.25 1.007-2.25 2.25v12c0 1.243 1.007 2.25 2.25 2.25h12c1.243 0 2.25-1.007 2.25-2.25v-8.647c0-.414.336-.75.75-.75s.75.336.75.75v8.647c0 2.071-1.679 3.75-3.75 3.75h-12c-2.071 0-3.75-1.679-3.75-3.75v-12c0-2.071 1.679-3.75 3.75-3.75z"/><path d="m22.092 5.09-8.841 8.841c-.082.082-.182.144-.293.181l-3.182 1.06c-.269.09-.566.02-.767-.181s-.271-.498-.181-.767l1.06-3.182c.037-.111.099-.211.181-.293l8.841-8.841c.878-.877 2.301-.877 3.179 0l.003.003c.877.878.877 2.301 0 3.179zm-1.061-1.06c.292-.292.292-.766 0-1.058l-.003-.003c-.292-.292-.766-.292-1.058 0l-8.715 8.715-.53 1.591 1.591-.53z"/><path d="m20.322 5.799c.293.293.293.768 0 1.061-.292.292-.768.292-1.06 0l-2.122-2.122c-.292-.292-.292-.768 0-1.06.293-.293.768-.293 1.061 0z"/></g></svg>

<svg clip-rule="evenodd" fill-rule="evenodd" height="512" stroke-linejoin="round" stroke-miterlimit="2" viewBox="0 0 24 24" width="512" xmlns="http://www.w3.org/2000/svg"><path d="M13.647 3.25a.75.75 0 0 1 0 1.5H5A2.25 2.25 0 0 0 2.75 7v12A2.25 2.25 0 0 0 5 21.25h12A2.25 2.25 0 0 0 19.25 19v-8.647a.75.75 0 0 1 1.5 0V19A3.75 3.75 0 0 1 17 22.75H5A3.75 3.75 0 0 1 1.25 19V7A3.75 3.75 0 0 1 5 3.25z"/><path d="m22.092 5.09-8.841 8.841a.749.749 0 0 1-.293.181l-3.182 1.06a.749.749 0 0 1-.948-.948l1.06-3.182a.749.749 0 0 1 .181-.293l8.841-8.841a2.25 2.25 0 0 1 3.179 0l.003.003a2.25 2.25 0 0 1 0 3.179zm-1.061-1.06a.748.748 0 0 0 0-1.058l-.003-.003a.748.748 0 0 0-1.058 0l-8.715 8.715-.53 1.591 1.591-.53z"/><path d="M20.322 5.799a.75.75 0 0 1-1.06 1.061L17.14 4.738a.75.75 0 0 1 1.061-1.06z"/></svg>
